apps/happin-web/public/images/icons/vip.svg

<?xml version="1.0" encoding="UTF-8" standalone="no"?>
<svg
   xmlns:dc="http://purl.org/dc/elements/1.1/"
   xmlns:cc="http://creativecommons.org/ns#"
   xmlns:rdf="http://www.w3.org/1999/02/22-rdf-syntax-ns#"
   xmlns:svg="http://www.w3.org/2000/svg"
   xmlns="http://www.w3.org/2000/svg"
   xmlns:sodipodi="http://sodipodi.sourceforge.net/DTD/sodipodi-0.dtd"
   xmlns:inkscape="http://www.inkscape.org/namespaces/inkscape"
   width="20"
   height="20"
   viewBox="0 0 20 20"
   version="1.1"
   id="svg23"
   sodipodi:docname="vip.svg"
   style="fill:none"
   inkscape:version="0.92.4 (5da689c313, 2019-01-14)">
  <metadata
     id="metadata27">
    <rdf:RDF>
      <cc:Work
         rdf:about="">
        <dc:format>image/svg+xml</dc:format>
        <dc:type
           rdf:resource="http://purl.org/dc/dcmitype/StillImage" />
      </cc:Work>
    </rdf:RDF>
  </metadata>
  <sodipodi:namedview
     pagecolor="#ffffff"
     bordercolor="#666666"
     borderopacity="1"
     objecttolerance="10"
     gridtolerance="10"
     guidetolerance="10"
     inkscape:pageopacity="0"
     inkscape:pageshadow="2"
     inkscape:window-width="1920"
     inkscape:window-height="1137"
     id="namedview25"
     showgrid="false"
     inkscape:zoom="15.733333"
     inkscape:cx="6.8024197"
     inkscape:cy="5.7898546"
     inkscape:window-x="-8"
     inkscape:window-y="-8"
     inkscape:window-maximized="1"
     inkscape:current-layer="g6" />
  <g
     id="g6"
     style="filter:url(#filter0_d)"
     transform="translate(-20,-20)">
    <circle
       cx="30"
       cy="30"
       r="10"
       id="circle2"
       style="fill:#fff846;fill-opacity:1;stroke:none;stroke-opacity:1" />
    <path
       d="M 25.07,26.86 H 23.53 L 25.17,34 h 1.85 l 1.64,-7.14 h -1.49 l -1.06,5.28 H 26.08 Z M 29.2555,34 h 1.44 v -7.14 h -1.44 z m 3.9482,-3.91 v -2.17 h 0.6 c 0.36,0 0.6166,0.0933 0.77,0.28 0.1533,0.1867 0.23,0.46 0.23,0.82 0,0.3667 -0.09,0.6367 -0.27,0.81 -0.1734,0.1733 -0.4034,0.26 -0.69,0.26 z m -1.44,-3.23 V 34 h 1.44 v -2.85 h 0.77 c 0.34,0 0.65,-0.0433 0.93,-0.13 0.28,-0.0867 0.5166,-0.2167 0.71,-0.39 0.2,-0.1733 0.3533,-0.3967 0.46,-0.67 0.1133,-0.2733 0.17,-0.5933 0.17,-0.96 0,-0.2667 -0.0334,-0.5267 -0.1,-0.78 -0.0667,-0.26 -0.1767,-0.49 -0.33,-0.69 -0.1534,-0.2 -0.3567,-0.36 -0.61,-0.48 -0.2467,-0.1267 -0.5534,-0.19 -0.92,-0.19 z"
       id="path4"
       inkscape:connector-curvature="0"
       style="fill:#000000" />
  </g>
  <defs
     id="defs21">
    <filter
       id="filter0_d"
       x="0"
       y="0"
       width="60"
       height="60"
       filterUnits="userSpaceOnUse"
       style="color-interpolation-filters:sRGB">
      <feFlood
         flood-opacity="0"
         result="BackgroundImageFix"
         id="feFlood8" />
      <feColorMatrix
         in="SourceAlpha"
         type="matrix"
         values="0 0 0 0 0 0 0 0 0 0 0 0 0 0 0 0 0 0 127 0"
         id="feColorMatrix10" />
      <feOffset
         id="feOffset12" />
      <feColorMatrix
         type="matrix"
         values="0 0 0 0 1 0 0 0 0 0.972549 0 0 0 0 0.27451 0 0 0 1 0"
         id="feColorMatrix14" />
      <feBlend
         mode="normal"
         in2="BackgroundImageFix"
         result="effect1_dropShadow"
         id="feBlend16" />
      <feBlend
         mode="normal"
         in="SourceGraphic"
         in2="effect1_dropShadow"
         result="shape"
         id="feBlend18" />
    </filter>
  </defs>
</svg>

<svg width="60" height="60" viewBox="0 0 60 60" fill="none" xmlns="http://www.w3.org/2000/svg">
<g filter="url(#filter0_d)">
<circle cx="30" cy="30" r="10" fill="#FFF846"/>
<path d="M25.07 26.86H23.53L25.17 34H27.02L28.66 26.86H27.17L26.11 32.14H26.08L25.07 26.86ZM29.2555 34H30.6955V26.86H29.2555V34ZM33.2037 30.09V27.92H33.8037C34.1637 27.92 34.4203 28.0133 34.5737 28.2C34.727 28.3867 34.8037 28.66 34.8037 29.02C34.8037 29.3867 34.7137 29.6567 34.5337 29.83C34.3603 30.0033 34.1303 30.09 33.8437 30.09H33.2037ZM31.7637 26.86V34H33.2037V31.15H33.9737C34.3137 31.15 34.6237 31.1067 34.9037 31.02C35.1837 30.9333 35.4203 30.8033 35.6137 30.63C35.8137 30.4567 35.967 30.2333 36.0737 29.96C36.187 29.6867 36.2437 29.3667 36.2437 29C36.2437 28.7333 36.2103 28.4733 36.1437 28.22C36.077 27.96 35.967 27.73 35.8137 27.53C35.6603 27.33 35.457 27.17 35.2037 27.05C34.957 26.9233 34.6503 26.86 34.2837 26.86H31.7637Z" fill="black"/>
</g>
<defs>
<filter id="filter0_d" x="0" y="0" width="60" height="60" filterUnits="userSpaceOnUse" color-interpolation-filters="sRGB">
<feFlood flood-opacity="0" result="BackgroundImageFix"/>
<feColorMatrix in="SourceAlpha" type="matrix" values="0 0 0 0 0 0 0 0 0 0 0 0 0 0 0 0 0 0 127 0"/>
<feOffset/>
<feGaussianBlur stdDeviation="10"/>
<feColorMatrix type="matrix" values="0 0 0 0 1 0 0 0 0 0.972549 0 0 0 0 0.27451 0 0 0 1 0"/>
<feBlend mode="normal" in2="BackgroundImageFix" result="effect1_dropShadow"/>
<feBlend mode="normal" in="SourceGraphic" in2="effect1_dropShadow" result="shape"/>
</filter>
</defs>
</svg>
